src/assets/img/dist/icons/blue-line.svg

<svg width="802" height="292" viewBox="0 0 802 292" fill="none" xmlns="http://www.w3.org/2000/svg">
<path d="M40 163.516L136.939 216.904C144.57 221.107 152.585 224.572 160.874 227.254L222.531 247.197C288.443 268.516 354.353 214.604 346.525 145.774V145.774C338.314 73.5854 410.678 19.1374 477.766 47.0239L530.381 68.894C558.159 80.4406 589.523 79.7133 616.736 66.8915V66.8915C668.875 42.3254 731.099 63.6495 757.211 115.032L761.601 123.672" stroke="#228CDB" stroke-width="79" stroke-linecap="round"/>
</svg>

<svg width="802" height="292" fill="none" xmlns="http://www.w3.org/2000/svg"><path d="M40 163.516l96.939 53.388a137.087 137.087 0 0023.935 10.35l61.657 19.943c65.912 21.319 131.822-32.593 123.994-101.423v0c-8.211-72.189 64.153-126.637 131.241-98.75l52.615 21.87a106.604 106.604 0 0086.355-2.003v0c52.139-24.566 114.363-3.242 140.475 48.141l4.39 8.64" stroke="#228CDB" stroke-width="79" stroke-linecap="round"/></svg>
